!!!COM: Beethoven, Ludwig van
!!!CDT: 1770///-1827///
!!!OTL: Piano Sonata no. 18 in E-flat major
!!!OTP: the hunt
!!!ODT: 1794///-1795///
!!!OPS: 31
!!!ONM: 3
!!!OMV: 3
!!!OMD: Menuetto: Moderato e grazioso
!!!AGN: Minuet
**kern	**kern	**dynam
*staff2	*staff1	*staff1/2
*>[I,A,A1,A,A2,B,B1,B,B2,C,C,D,D,II,E,E1,E,E2,F,F1,F,F2,G]	*>[I,A,A1,A,A2,B,B1,B,B2,C,C,D,D,II,E,E1,E,E2,F,F1,F,F2,G]	*>[I,A,A1,A,A2,B,B1,B,B2,C,C,D,D,II,E,E1,E,E2,F,F1,F,F2,G]
*>norep[I,A,A2,B,B2,C,D,II,E,E2,F,F2,G]	*>norep[I,A,A2,B,B2,C,D,II,E,E2,F,F2,G]	*>norep[I,A,A2,B,B2,C,D,II,E,E2,F,F2,G]
*>I	*>I	*>I
*clefF4	*clefG2	*clefG2
*k[b-e-a-]	*k[b-e-a-]	*k[b-e-a-]
*E-:	*E-:	*E-:
*M3/4	*M3/4	*M3/4
*MM120	*MM120	*MM120
4r	(8.B-/L	p
.	16e-/Jk)	.
=1	=1	=1
*^	*	*
8G/L	2.E-\	2e-/	.
8B-/	.	.	.
8G/	.	.	.
8B-/	.	.	.
8G/	.	(8.g/L	.
8B-/J	.	.	.
.	.	16e-/Jk)	.
*v	*v	*	*
=2!|:	=2!|:	=2!|:
*>A	*>A	*>A
*^	*	*
8A-/L	[2F\	(4e-/	.
8B-/	.	.	.
8A-/	.	4.d/	.
8B-/	.	.	.
8A-/	8F\L]	.	.
8G/J	8E-\J	8e-/)	.
*v	*v	*	*
=3	=3	=3
*	*^	*
4.D\ (4.F\	(4.f/	8B-\L	.
.	.	8B-\	.
.	.	8B-\	.
8C\ 8E-\L	8g/L	8B-\	.
8BB-\ 8D\	8f/ 8a-/	8B-\	.
8D\ 8F\J)	8f/ 8b-/J)	8B-\J	.
=4	=4	=4	=4
4E-\	4f/ (4a-/	8B-\L	.
.	.	8B-\	.
4EE-/	4e-/ 4g/)	8B-\	.
.	.	8B-\	.
(8.E-\L	(8.g/L	8e-\	.
.	.	8e-\J	.
16F\Jk)	16a-/Jk)	.	.
=5	=5	=5	=5
(4.G\	(4.b-/	8e-\L	<
.	.	8e-\	.
.	.	8e-\	.
8E-\L	8g/L	8e-\	.
8A-\	8cc/	8e-\	.
8F\J)	8a-/J)	8e-\J	.
=6	=6	=6	=6
(2G\	(4.b-/	8e-\L	.
.	.	8e-\	.
.	.	8e-\	.
.	8bn/L	8e-\	.
8A-\L	8cc/	8e-\	.
8G\J)	8b-/J)	8e-\J	.
=7	=7	=7	=7
(4.F\	(8b-/	8c\L	p
.	4a-/	8c\	.
.	.	8d-\	.
8BB-\L	8f/L	8B-\ 8dn\	.
8E-\	8e-/ 8g/	8B-\	.
8AA-\J)	16f/ 16b-/L	8c\J	.
.	16a-/JJ)	.	.
=8	=8	=8	=8
(4.BB-/	(4g/	8e-\L	.
.	.	8B-\	.
.	8f/)	8d\J	.
8AA-/L	8r	8r	.
8GG/	8.B-/L	(8B-\L	.
8FF/J)	.	8A-\J	.
.	16e-/Jk)	.	.
*	*v	*v	*
=9	=9	=9
*>A1	*>A1	*>A1
*	*^	*
*^	*	*	*
8r	8EE-\	2e-/	8G\	.
8B-/L	8r	.	8r	.
8G/	2E-\	.	4r	.
8B-/	.	.	.	.
8G/	.	8.g/L	4r	.
8B-/J	.	.	.	.
.	.	16e-/Jk	.	.
*v	*v	*	*	*
*	*v	*v	*
=10:|!	=10:|!	=10:|!
*>A2	*>A2	*>A2
*	*^	*
(4BB-/	(4g/	8e-\L	.
.	.	8B-\	.
8BBB-/)	8f/)	8d\	.
8r	8r	8B-\J	.
4r	(8.b-/L	4r	.
.	16cc-/Jk)	.	.
*	*v	*v	*
=11!|:	=11!|:	=11!|:
*>B	*>B	*>B
8BB-'/	(2cc-^\	.
(8B-\L	.	.
8d\	.	.
8B-\	.	.
8f\	8b-\L)	.
8B-\J)	8a-\J	.
=12	=12	=12
*	*^	*
8e-\L	8g/L	(4g\	.
8B-\	8ee-/	.	.
8f\	8dd/	4a-\	.
8B-\	8ff/	.	.
8g\	8ee-/	8b-\	.
8B-\J	8b-/J)	8r	.
*	*v	*v	*
=13	=13	=13
8BB-'/	(2cc-^\	.
(8B-\L	.	.
8d\	.	.
8B-\	.	.
8f\	8b-\L)	.
8B-\J)	8a-\J	.
=14	=14	=14
*	*^	*
(8e-\L	(8g/L	4g\	.
8B-\	8ee-/	.	.
8f\	8dd/	4a-\	.
8B-\	8ff/	.	.
8g\	8ee-/	8b-\	.
8B-\J)	8gg/J)	8r	.
=15	=15	=15	=15
8E-'\	(4.bb-/	4r	.
*clefG2	*	*	*
8e-/L	.	.	.
8g/	.	[2ee-\	<
8e-/	8gg/L	.	.
8f/	8aa-/	.	.
8a-/J	8ccc/J	.	.
=16	=16	=16	=16
8g/L	4.bb-/	4ee-\]	.
8f#/	.	.	.
8g/	.	4.ee-\	.
8e-/	8gg/L	.	.
8c/	8aa-/	.	.
8d/J	8ffn/J	8b-\	.
*clefF4	*	*	*
=17	=17	=17	=17
*^	*	*	*
2r	(8e-\L	8gg/L	8g\L	p
.	8c\	8ee-/J	8g\J	.
.	8A-\	4.ff/	4cc\	.
.	8F\	.	.	.
4B-/	8B-\	.	4a-\	.
.	8BB-\J)	8dd/)	.	.
*v	*v	*	*	*
*	*v	*v	*
=18	=18	=18
*>B1	*>B1	*>B1
*^	*	*
*	*	*^	*
(8B-/L	4.E-\	(4ff/	4a-\	.
8d/J	.	.	.	.
8e-/)	.	8ee-/)	8g\	.
4.r	(8B-\L	8r	8r	.
.	8G\	4r	(8.b-\L	.
.	8E-\J)	.	.	.
.	.	.	16cc-\Jk)	.
*v	*v	*	*	*
*	*v	*v	*
=19:|!	=19:|!	=19:|!
*>B2	*>B2	*>B2
*^	*	*
(4E-\	(4ff/	4a-\	.
8EE-/)	8ee-/)	8g\	.
8r	8r	8r	.
*v	*v	*	*
*>C	*>C	*>C
!! Trio
=	=	=
4EE-'/ 4BB-'/ 4E-'/	4G'/ 4e-'/ 4g'/	p
=20	=20	=20
2F\ 2B-\ 2f\	2a-\ 2dd\ 2aa-\	.
4FF'/ 4BB-'/ 4F'/	4A-'/ 4d'/ 4a-'/	.
=21	=21	=21
2G\ 2e-\ 2g\	2b-\ 2ee-\ 2bb-\	.
4G\ 4B-\	4e-/ (4b-/	<
=22	=22	=22
4.A-\ (4.c\	4.e-/ (4.cc/)	.
8G\ 8B-\L)	8e-/ 8b-/L)	>
8F'\ 8B-'\	8d'/ 8a-'/	.
8E-'\ 8B-'\J	8e-'/ 8g'/J	.
=23	=23	=23
*	*^	*
8BB-\ (8B-\L	(8f/L	8d\L	p
8E-\ 8B-\	16a-/L	8e-\	.
.	16g/JJ	.	.
8BB-'\ 8B-'\J)	8f'/)	8d\J	.
8r	8r	4.r	.
4EE-'/ 4E-'/	4G'/ 4e-'/ 4g'/	.	p
*	*v	*v	*
=24	=24	=24
2f#\	2an\ 2ee-\ 2aan\	.
4GG'\ 4G'\	4B-'/ 4e-'/ 4b-'/	.
*clefG2	*	*
=25	=25	=25
2an/	2cc\ 2ee-\ 2gg-\ 2ccc\	.
*clefF4	*	*
4DD'/ 4D'/	4d'/ 4dd'/	f
=26	=26	=26
8.EE-'/ 8.E-'/L	8.e-'/ 8.ee-'/L	.
16DD'/ 16D'/Jk	16d'/ 16dd'/Jk	.
4CC'/ 4C'/	4c'/ 4cc'/	.
4FF'/ 4F'/	4f'/ 4ff'/	.
=27	=27	=27
4BBB-'/ 4BB-'/	4B-'/ 4b-'/	.
8r	8r	.
=28:|!|:	=28:|!|:	=28:|!|:
*>D	*>D	*>D
4BB-'/	4B-'/	p
=29	=29	=29
2A-\ 2d\ 2f\	2a-\ 2ff\	.
4BB-'/	4B-'/	.
=30	=30	=30
2F\ 2A-\ 2c-\ 2d\	2f\ 2a-\ 2cc-\ 2dd\	.
4BB-'/	4B-'/	.
=31	=31	=31
4A-'\ 4c-'\ 4d'\ 4f'\	4a-'\ 4cc-'\ 4dd'\ 4ff'\	.
4BB-'/	4B-'/	.
4F'\ 4A-'\ 4c-'\ 4d'\	4f'\ 4a-'\ 4cc-'\ 4dd'\	.
=32	=32	=32
4BB-'/	4B-'/	.
4F'\ 4A-'\ 4c-'\ 4d'\	4f\ 4a-\ 4cc-\ 4dd\	.
4BB-'/	4B-'/	.
=33	=33	=33
4F'\ 4A-'\ 4c-'\ 4d'\	4f'\ 4a-'\ 4cc-'\ 4dd'\	.
4BB-'/	4B-'/	.
4F'\ 4A-'\ 4c-'\ 4d'\	4f'\ 4a-'\ 4cc-'\ 4dd'\	.
=34	=34	=34
*^	*	*
4r	4BB-'\	4B-'/	f
4BB-'/	4BBB-'\	4r	.
4EE-'/ 4BB-'/ 4E-'/	4r	4G'/ 4e-'/ 4g'/	p
*v	*v	*	*
=35	=35	=35
2F\ 2B-\ 2f\	2a-\ 2dd\ 2aa-\	.
4FF'/ 4BB-'/ 4F'/	4A-'/ 4d'/ 4a-'/	.
=36	=36	=36
2G\ 2e-\ 2g\	2b-\ 2ee-\ 2bb-\	.
4G\ 4B-\	4e-/ (4b-/	<
=37	=37	=37
4.A-\ 4.c\	4.e-/ 4.cc/)	.
8G'\ 8B-'\L	8e-'/ 8b-'/L	>
8F'\ 8B-'\	8a-'/ 8dd'/	.
8E-'\ 8B-'\J	8g'/ 8ee-'/J	.
=38	=38	=38
*	*^	*
8BB-\ (8B-\L	8ff/L	(8dd\L	.
8E-\ 8B-\	16aa-/L	8ee-\	.
.	16gg/J	.	.
8BB-'\ 8B-'\J)	8ff/J	8dd\J)	.
8r	8r	4.r	.
4EE-'/ 4E-'/	4G'/ 4e-'/ 4g'/	.	p
*	*v	*v	*
=39	=39	=39
2f#\	2an\ 2ee-\ 2aan\	.
4GG'\ 4G'\	4B-'/ 4e-'/ 4b-'/	<
*clefG2	*	*
=40	=40	=40
2an/	2cc\ 2ee-\ 2gg-\ 2ccc\	.
4Bn/ 4f/ 4a/	4dd\ (4ddd\	f
=41	=41	=41
8.c/ 8.e-/ 8.g/L	8.ee-\ 8.eee-\L	.
16An/ 16e-/ 16f#/Jk	16cc\ 16ccc\Jk)	.
4B-'/ 4e-'/ 4g'/	4b-'\ 4bb-'\	.
*clefF4	*	*
4BBB-'/ 4BB-'/	4b-'\ 4bb-'\	p
=42	=42	=42
4EE-'/ 4E-'/	4e-'\ 4ee-'\	.
4r	4r	.
=:|!	=:|!	=:|!
*>II	*>II	*>II
4r	(8.B-/L	p
.	16e-/Jk)	.
=43	=43	=43
*^	*	*
(8G/L	2.E-\	2e-/	.
8B-/	.	.	.
8G/	.	.	.
8B-/	.	.	.
8G/	.	(8.g/L	.
8B-/J)	.	.	.
.	.	16e-/Jk)	.
*v	*v	*	*
=44!|:	=44!|:	=44!|:
*>E	*>E	*>E
*^	*	*
8A-/L	[2F\	(4e-/	.
8B-/	.	.	.
8A-/	.	4.d/	.
8B-/	.	.	.
8A-/	8F\L]	.	.
8G/J	8E-\J	8e-/)	.
*v	*v	*	*
=45	=45	=45
*	*^	*
4.D\ (4.F\	(4.f/	8B-\L	.
.	.	8B-\	.
.	.	8B-\	.
8C\ 8E-\L	8g/L	8B-\	.
8BB-\ 8D\	8f/ 8a-/	8B-\	.
8D\ 8F\J)	8f/ 8b-/J)	8B-\J	.
=46	=46	=46	=46
(4E-\	4f/ (4a-/	8B-\L	.
.	.	8B-\	.
4EE-/)	4e-/ 4g/)	8B-\	.
.	.	8B-\	.
(8.E-\L	(8.g/L	8e-\	.
.	.	8e-\J	.
16F\Jk)	16a-/Jk)	.	.
=47	=47	=47	=47
(4.G\	(4.b-/	8e-\L	<
.	.	8e-\	.
.	.	8e-\	.
8E-\L	8g/L	8e-\	.
8A-\	8cc/	8e-\	.
8F\J)	8a-/J)	8e-\J	.
=48	=48	=48	=48
(2G\	(4.b-/	8e-\L	.
.	.	8e-\	.
.	.	8e-\	.
.	8bn/L	8e-\	.
8A-\L	8cc/	8e-\	.
8G\J)	8b-/J)	8e-\J	.
=49	=49	=49	=49
(4.F\	(8b-/	8c\L	p
.	4a-/	8c\	.
.	.	8d-\	.
8BB-\L	8f/L	8B-\ 8dn\	.
8E-\	8g/	8B-\ 8e-\	.
8AA-\J)	16b-/L	8c\ 8f\J	.
.	16a-/JJ)	.	.
*	*v	*v	*
=50	=50	=50
*>E1	*>E1	*>E1
*	*^	*
(4.BB-/	(4g/	8e-\L	.
.	.	8B-\	.
.	8f/)	8d\J	.
8AA-/L	8r	8r	.
8GG/	8.B-/L	(8B-\L	.
8FF/J)	.	8A-\J	.
.	16e-/Jk)	.	.
=51	=51	=51	=51
*^	*	*	*
8r	8EE-\	2e-/	8G\	.
(8B-/L	8r	.	8r	.
8G/	2E-\	.	4r	.
8B-/	.	.	.	.
8G/	.	8.g/L	4r	.
8B-/J)	.	.	.	.
.	.	16e-/Jk	.	.
*v	*v	*	*	*
*	*v	*v	*
=52:|!	=52:|!	=52:|!
*>E2	*>E2	*>E2
*	*^	*
(4BB-/	(4g/	8e-\L	.
.	.	8B-\	.
8BBB-/)	8f/)	8d\	.
8r	8r	8B-\J	.
*	*v	*v	*
=!|:	=!|:	=!|:
*>F	*>F	*>F
4r	(8.b-\L	.
.	16cc-\Jk)	.
=53	=53	=53
8BB-'/	(2cc-^\	.
(8B-\L	.	.
8d\	.	.
8B-\	.	.
8f\	8b-\L)	.
8B-\J)	8a-\J	.
=54	=54	=54
*	*^	*
(8e-\L	8g/L	(4g\	.
8B-\	8ee-/	.	.
8f\	8dd/	4a-\	.
8B-\	8ff/	.	.
8g\	8ee-/	8b-\	.
8B-\J)	8b-/J)	8r	.
*	*v	*v	*
=55	=55	=55
8BB-'/	(2cc-^\	.
(8B-\L	.	.
8d\	.	.
8B-\	.	.
8f\	8b-\L)	.
8B-\J)	8a-\J	.
=56	=56	=56
*	*^	*
(8e-\L	8g/L	(4g\	.
8B-\	8ee-/	.	.
8f\	8dd/	4a-\	.
8B-\	8ff/	.	.
8g\	8ee-/	8b-\	.
8B-\J)	8gg/J)	8r	.
=57	=57	=57	=57
8E-'\	(4.bb-/	4r	.
*clefG2	*	*	*
8e-/L	.	.	.
8g/	.	2ee-\	<
8e-/	8gg/L	.	.
8f/	8aa-/	.	.
8a-/J	8ccc/J	.	.
=58	=58	=58	=58
8g/L	4.bb-/	4ee-\	.
8f#/	.	.	.
8g/	.	4.ee-\	.
8e-/	8gg/L	.	.
8c/	8aa-/	.	.
8d/J	8ff/J	8b-\	.
*clefF4	*	*	*
=59	=59	=59	=59
(8e-\L	8gg/L	8g\L	p
8c\	8ee-/J	8g\J	.
8A-\	4.ff/	4cc\	.
8F\	.	.	.
8B-\	.	[4a-\	.
8BB-\J	8dd/)	.	.
*	*v	*v	*
=60	=60	=60
*>F1	*>F1	*>F1
*	*^	*
(4E-\)	4ff/	4a-\]	.
8EE-/)	8ee-/	8g\	.
8r	8r	8r	.
*	*v	*v	*
=61:|!	=61:|!	=61:|!
*>F2	*>F2	*>F2
*	*^	*
4E-'\	4ee-/	4g\	.
4EE-'/	4r	2r	.
4r	(8.e-/L	.	p
.	16f-/Jk)	.	.
*	*v	*v	*
=62	=62	=62
*>G	*>G	*>G
*^	*	*
4r	4r	2f-/	p
4A-'/ 4c-'/	4EE-'\	.	.
4r	4r	(8.e-/L	.
.	.	16d/Jk)	.
=63	=63	=63	=63
4r	4r	4e-'/	.
4G'/ 4B-'/	4EE-'\	4r	.
4r	4r	(8.e-/L	.
.	.	16f-/Jk)	.
=64	=64	=64	=64
4r	4r	(2f-/	>
4A-/ 4c-/	4EE-'\	.	.
4r	4r	8.e-/L)	.
.	.	16d/Jk	.
=65	=65	=65	=65
4r	4r	4e-/	.
4G'/ 4B-'/	4EE-'\	4r	.
4A-/ 4c-/	4EE-'\	(8.e-/L	.
.	.	16d/Jk)	.
=66	=66	=66	=66
4r	4r	4e-/	.
4G/ 4B-/	4EE-'\	4r	.
4A-'/ 4c-'/	4EE-'\	(8.e-/L	.
.	.	16d/Jk)	.
=67	=67	=67	=67
4r	4r	[4e-/	.
4G'/ 4B-'/	4EE-'\	(8.e-/L]	.
.	.	16d/Jk	.
4r	4r	8.e-/L	.
.	.	16d/Jk	.
=68	=68	=68	=68
4r	4r	8.e-/L	pp
.	.	16d/Jk	.
4G/ 4B-/	4EE-\	8.e-/L	.
.	.	16d/Jk	.
4G/ 4B-/	4EE-'\	8.e-/L	.
.	.	16d/Jk	.
=69	=69	=69	=69
4G/ 4B-/	4EE-'\	4e-/)	.
4r	4r	4r	.
*v	*v	*	*
==	==	==
*-	*-	*-
!!!ENC: Craig Stuart Sapp
!!!END: 2008/02/21/
